X: 21463
T: Kevin McHugh's
R: slide
M: 12/8
K: Fmajor
|:f|a2f a2f a2a aga|c'2a gag fgd c2f|
a2f a2f a2a aga|c'2c' gag fgf f2:|
|:A|c2c fgd c2cc3|Acd f2e d3 d3|
dcd fed cdf e2d|1 cdc BAG A3 A2:|2 cdc BAG F3 F2||

